material/.icons/material/overscan.svg

<svg xmlns="http://www.w3.org/2000/svg" viewBox="0 0 24 24"><path d="M12 5.5L10 8h4l-2-2.5m6 4.5v4l2.5-2-2.5-2M6 10l-2.5 2L6 14v-4m8 6h-4l2 2.5 2-2.5m7-13H3c-1.1 0-2 .9-2 2v14c0 1.1.9 2 2 2h18c1.1 0 2-.9 2-2V5c0-1.1-.9-2-2-2m0 16H3V5h18v14z"/></svg>

<?xml version="1.0" encoding="UTF-8"?><!DOCTYPE svg PUBLIC "-//W3C//DTD SVG 1.1//EN" "http://www.w3.org/Graphics/SVG/1.1/DTD/svg11.dtd"><svg xmlns="http://www.w3.org/2000/svg" xmlns:xlink="http://www.w3.org/1999/xlink" version="1.1" id="mdi-overscan" width="24" height="24" viewBox="0 0 24 24"><path d="M12 5.5L10 8H14L12 5.5M18 10V14L20.5 12L18 10M6 10L3.5 12L6 14V10M14 16H10L12 18.5L14 16M21 3H3C1.9 3 1 3.9 1 5V19C1 20.1 1.9 21 3 21H21C22.1 21 23 20.1 23 19V5C23 3.9 22.1 3 21 3M21 19H3V5H21V19Z" /></svg>
